X:1
T:All Round My Hat
M:2/4
L:1/8
K:C
 D3/2 D/2 EG| A2 Bc| d2 cB| A G2 C| D3/2 D/2 EG| A2 Bc| dd cd/2-c/2|\
 A3 A| F/2 F3/2 ED| CD EG| G2 FE| E D2B/2-d/2| d2 cc| A/2 G3/2- GC|\
 E2 D3/2 C/2| D3 z|
